X: 78
T: Preludium B-dur
C: Maria Szymanowska
%%abc-version 2.0
%%abcx-abcm2ps-target-version 5.9.1 (29 Sep 2008)
%%abc-creator hum2abc beta
%%abcx-conversion-date 2021/10/04 07:38:42
%%abc-edited-by Leszek Kubiak
%%abc-edited-by Marcin Jachim
%%abcx-initial-encoding-date 2020-06-16
%%humdrum-veritas 693165242
%%humdrum-veritas-data 3551411520
%%linebreak <none>
%%barnumbers 0
L: 1/16
M: 6/8
N: Derived from pl-kozmzk--mzk-m-31--005_szymanowska-maria--preludium-b-dur.krn
%%staves {1 2}
V: 1 clef=treble
V: 2 clef=bass
K: Bb
[V:1] z/ D/F/D/B/F/d/B/F/D/d/B/ z/ D/F/D/B/F/d/B/F/D/d/B/ | 
[V:2] !wedge!B,,2[F,2B,2D2] z2 B,,2[F,2B,2D2] z2 | 
[V:1] z/ E/G/E/B/G/e/B/G/E/e/B/ z/ E/G/E/B/G/e/B/G/E/e/B/ | 
[V:2] B,,2!wedge![E,2G,2B,2] z2 !wedge!B,,2!wedge![E,2G,2B,2] z2 | 
[V:1] z/ E/A/E/c/A/e/c/A/E/e/c/ z/ E/F/E/c/F/e/c/F/E/e/c/ | 
[V:2] B,,2[F,2A,2C2] z2 B,,2[F,2A,2C2] z2 | 
[V:1] z/ D/F/D/B/F/d/B/F/D/d/B/ z/ F/B/F/d/B/f/d/B/F/f/d/ | 
[V:2] B,,2[F,2B,2D2] z2 B,,2[F,2B,2D2] z2 | 
[V:1] z/ F/B/F/d/B/f/d/B/F/f/d/ z/ f/b/f/d'/b/f'/d'/b/f/f'/d'/ | 
[V:2] D,2[B,2F2] z2 D,2[B,2F2] z2 | 
[V:1] z/ G/B/G/c/B/g/c/B/G/g/c/ z/ g/b/g/c'/b/g'/c'/b/g/g'/c'/ | 
[V:2] E,2[B,2C2G2] z2 E,2[B,2C2G2] z2 | 
[V:1] z/ f/b/f/d'/b/f'/d'/b/f/f'/d'/ z/ f/b/f/c'/b/f'/c'/a/f/f'/c'/ | 
[V:2] F,2[B,2D2F2] z2 F,2 [B,2C2F2][A,2C2F2] | 
[V:1] z/ f/b/f/d'/b/!accent!f'/d'/b/f/!accent!d'/b/ f/d/b/f/d/B/f/d/B/F/c/E/ | 
[V:2] !arpeggio![B,,4F,4B,4D4]z2z4z2 | 
[V:1] [D6F6B6][F6B6d6f6] | 
[V:2] B,,/D,/F,/D,/B,/F,/D/B,/F,/D,/B,/F,/ B,,/D,/F,/D,/B,/F,/D/B,/F,/D,/B,/F,/ | 
[V:1] [G6B6e6g6][A6c6e6a6] | 
[V:2] B,,/E,/G,/E,/B,/G,/E/B,/G,/E,/B,/G,/ B,,/E,/_G,/E,/A,/G,/C/A,/G,/E,/A,/C,/ | 
[V:1] D/F/B/F/d/B/f/d/B/F/d/B/ F/B/d/B/f/d/b/f/d/B/f/d/ | 
[V:2] B,,/D,/F,/D,/B,/F,/D/B,/F,/D,/B,/F,/ B,,/D,/F,/D,/B,/F,/D/B,/F,/D,/B,/F,/ | 
[V:1] G/B/e/B/g/e/b/g/e/B/g/e/ A/c/e/c/_g/e/a/g/e/c/A/E/ | 
[V:2] B,,/E,/G,/E,/B,/G,/E/B,/G,/E,/B,/G,/ B,,/E,/_G,/E,/A,/G,/C/A,/G,/E,/C,/A,,/ | 
[V:1] D/F/B/F/d/B/f/d/e/f/a/c'/ b/f/d'/b/f'/d'/b'/d'/e'/f'/a'/c''/ | 
[V:2] B,,/D,/F,/D,/B,/F,/D/B,/C/A,/F,/E,/ D,/B,/F,/D/[K:clef=treble]B,/F/D/B/c/A/F/E/ | 
[V:1] b'/ d'/f'/b/d'/f/b/d/ f/e/c/A/ B/ D/F/B,/D/F,/B,/D,/ F,/E,/C,/A,,/ | 
[V:2] D/ b/d/f/B/d/F/B/ A[_EF] [D/F/][K:clef=bass] B,/D,/F,/B,,/D,/F,,/B,,/ A,,[F,,,F,,] | 
[V:1] B,,/D,/F,/B,/D/F/B/d/ f/b/[c/e/]a/[B4d4b4]z2 ||  
[V:2] B,,,D,,/F,,/B,,/D,/F,/B,/ D/F/D, B,2!wedge!B,,2 z2 ||  
[V:1] G,,/=B,,/D,/G,/=B,/D/G/=B/ d/g/[A/c/]^f/[G4=B4g4]z2 | 
[V:2] G,,,B,,,/D,,/G,,/=B,,/D,/G,/ =B,/D/D, !wedge!G,2!wedge!G,,2 z2 | 
[V:1] _A,/C/E/_A/c/e/_a/c'/ e'/_a'/[_d'/e'/]g'/ [c'/e'/]a'/ !accent![^f/c'/]=d'/!accent![_d/f/]c'/ !accent![c/d/]f/ !accent![^F/c/]d/ !accent![C/D/]F/ | 
[V:2] _A,,C,/E,/_A,/C/E/_A/[K:clef=treble] c/e/E _AA _A,A,[K:clef=bass] _A,,A,, | 
[V:1] =B,/D/G/D/=B/G/d/B/ c/d/^f/a/ g/d/=b/g/d'/b/g'/d'/ c'/d'/^f'/a'/ | 
[V:2] G,,/=B,,/D,/B,,/G,/D,/=B,/G,/ A,/^F,/D,/C,/ B,,/G,/D,/=B,/G,/D/B,/=B/ A/^F/D/C/ | 
[V:1] g'/ =b/d'/g/b/=d/g/B/ d/c/A/^F/ G/ =B,/D/G,/B,/D,/G,/=B,,/ D,/C,/A,,/F,,/ | 
[V:2] =B,/[K:clef=treble] g/=B/d/G/B/D/G/ ^F[CD] [=B,/D/][K:clef=bass] G,/=B,,/D,/G,,/B,,/D,,/G,,/ ^F,,D,, | 
[V:1] G,,/ !accent!G,,/=B,,/D,/ G,/ !accent!G,/=B,/D/ G/ !accent!G/=B/d/ !wedge!g2[B,2D2G2] !fermata!z2 | 
[V:2] G,,/ G,,/D,,/=B,,,/ G,,,/ G,/D,/B,,/ G,,/ G/D/B,/ G,2[G,,2G,2] !fermata!z2 | 
[V:1] z/ C/E/C/G/E/c/G/E/C/c/G/ z/ c/e/c/g/e/c'/g/e/c/c'/g/ | 
[V:2] [C,,2C,2][C,,2C,2] z2 [C,2E,2G,2C2][C,2E,2G,2C2] z2 | 
[V:1] z/ C/F/C/_A/F/c/A/F/C/c/A/ z/ c/f/c/_a/f/c'/a/f/c/c'/a/ | 
[V:2] [C,,2C,2][C,,2C,2] z2 [C,2F,2_A,2C2][C,2F,2A,2C2] z2 | 
[V:1] z/ D/F/D/_A/F/=B/A/F/D/B/A/ z/ d/f/d/_a/f/=b/a/f/d/b/a/ | 
[V:2] [C,,2C,2][C,,2C,2] z2 [C,2F,2_A,2=B,2][C,2F,2A,2B,2] z2 | 
[V:1] z/ C/E/C/G/E/c/G/E/C/c/G/ z/ c/e/c/g/e/c'/g/e/c/c'/g/ | 
[V:2] [C,,2C,2][C,,2C,2] z2 [C,2E,2G,2C2][C,2E,2G,2C2] z2 | 
[V:1] z/ C/D/C/F/D/_A/F/D/C/A/F/ z/ c/d/c/f/d/_a/f/d/c/a/f/ | 
[V:2] [C,,2C,2][C,,2C,2] z2 [C,2F,2_A,2C2][C,2F,2A,2C2] z2 | 
[V:1] z/ G,/C/G,/E/C/G/E/C/G,/G/E/ z/ G/c/G/e/c/g/e/c/G/g/e/ | 
[V:2] [C,,2C,2][C,,2C,2] z2 [C,2E,2G,2C2][C,2E,2G,2C2] z2 | 
[V:1] z/ F/=B/F/d/B/g/d/B/F/g/d/ z/ G/c/G/e/c/g/e/c/G/g/e/ | 
[V:2] [G,,2D,2=B,2][G,,2D,2B,2] z2 [G,,2E,2C2][G,,2E,2C2] z2 | 
[V:1] z/ G/=B/G/d/B/g/d/=b/g/!accent!d'/b/ g/d/!accent!b/g/d/B/!accent!g/d/B/G/d/F/ | 
[V:2] [G,,6D,6=B,6]-[G,,4D,4B,4]z2 | 
[V:1] [E6_A6c6][E6A6c6e6] | 
[V:2] _A,,/C,/E,/C,/_A,/E,/!accent!C/A,/E,/C,/A,/E,/ A,,/C,/E,/C,/_A,/E,/!accent!C/A,/E,/C,/A,/E,/ | 
[V:1] [F6_A6_d6f6][G6B6d6g6] | 
[V:2] _A,,/_D,/F,/D,/_A,/F,/!accent!_D/A,/F,/D,/A,/F,/ A,,/D,/F,/D,/G,/F,/B,/G,/F,/D,/G,/B,,/ | 
[V:1] C/E/_A/E/c/A/e/c/A/E/c/A/ E/_A/c/A/e/c/_a/e/c/A/e/c/ | 
[V:2] _A,,/C,/E,/C,/_A,/E,/C/A,/E,/C,/A,/E,/ _A,,/C,/E,/C,/_A,/E,/C/A,/E,/C,/A,/E,/ | 
[V:1] F/_A/_d/A/f/d/_a/f/d/A/f/d/ G/B/d/B/=e/d/g/e/d/B/G/_D/ | 
[V:2] _A,,/_D,/F,/D,/_A,/F,/_D/A,/F,/D,/A,/F,/ A,,/D,/=E,/D,/G,/E,/B,/G,/E,/D,/B,,/G,,/ | 
[V:1] C/E/_A/E/c/A/e/c/ _d/=e/g/b/ _A,/C/F/C/_A/F/c/A/ _G/A/c/e/ | 
[V:2] _A,,/C,/E,/C,/_A,/E,/C/A,/ G,/=E,/_D,/B,,/ F,,/_A,,/C,/A,,/F,/C,/_A,/F,/ _G,/E,/C,/A,,/ | 
[V:1] F/_A/_d/A/f/d/_a/f/ _c'/a/f/d/ !accent!b/_g/d/B/ !accent!b/f/d/B/ !accent!b/=e/d/B/ | 
[V:2] _D,,/F,,/_A,,/F,,/_D,/A,,/F,/D,/ _A,/F,/_C/A,/ _G,/D,/B,,/_G,,/ F,/D,/B,,/G,,/ =E,/D,/B,,/G,,/ | 
[V:1] b/=e/c/B/ b/e/_d/B/ b/e/c/B/ a/f/c/A/ f/_e/A/F/ =d/B/F/D/ | 
[V:2] =E,/C,/B,,/_G,,/ E,/_D,/B,,/G,,/ E,/C,/B,,/G,,/ F,/C,/A,,/F,,/ A,/F,/C,/A,,/ B,/F,/D,/B,,/ | 
[V:1] c/G/E/C/ B/_D/B,/G,/ F/E/C/A,/z4!fermata!z2 | 
[V:2] E,/C,/G,,/E,,/ =E,/B,,/G,,/=E,,/ F,,/A,,/C,/F,/z4!fermata!z2 | 
[V:1] z/ D/F/D/B/F/d/B/F/D/d/B/ z/ F/B/F/d/B/f/d/B/F/f/d/ | 
[V:2] B,,2[F,2B,2D2] z2 B,,2[F,2B,2D2] z2 | 
[V:1] z/ F/=B/F/d/B/g/d/B/F/g/d/ z/ G/c/G/e/c/g/e/c/G/g/e/ | 
[V:2] G,,2[D,2G,2=B,2] z2 C,2[E,2G,2C2] z2 | 
[V:1] z/ E/A/E/c/A/f/c/A/F/f/c/ z/ D/B/D/d/B/f/d/B/F/f/d/ | 
[V:2] F,,2[C,2E,2A,2] z2 B,,2[D,2F,2B,2] z2 | 
[V:1] z/ C/G/C/B/G/c/B/G/C/c/B/ z/ C/E/C/A/E/c/A/E/C/c/A/ | 
[V:2] E,,2[C,2E,2G,2] z2 F,,2[C,2E,2A,2] z2 | 
[V:1] [D6F6B6][F6B6d6f6] | 
[V:2] B,,/D,/F,/D,/B,/F,/D/B,/F,/D,/B,/F,/ B,,/D,/F,/D,/B,/F,/D/B,/F,/D,/B,/F,/ | 
[V:1] [F6=B6d6g6][G6c6e6g6] | 
[V:2] G,,/D,/G,/D,/=B,/G,/D/B,/G,/D,/B,/G,/ C,/E,/G,/E,/C/G,/E/C/G,/E,/C/G,/ | 
[V:1] [E6A6c6f6][D6F6B6d6] | 
[V:2] F,,/C,/E,/C,/A,/E,/C/A,/E,/C,/A,/E,/ B,,/D,/F,/D,/B,/F,/D/B,/F,/D,/B,/F,/ | 
[V:1] [C6E6G6c6][C6E6F6A6] | 
[V:2] E,,/C,/E,/C,/G,/E,/C/G,/E,/C,/G,/E,/ F,,/C,/E,/C,/F,/E,/A,/F,/E,/C,/A,/F,/ | 
[V:1] D/F/B/F/d/B/f/d/ e/f/a/c'/ b/f/d'/b/f'/d'/b'/f'/ e'/f'/a'/c''/ | 
[V:2] B,,/D,/F,/D,/B,/F,/D/B,/C/A,/F,/E,/ D,/B,/F,/D/B,/F/D/B/[K:clef=treble] c/A/F/E/ | 
[V:1] b'/ d'/f'/b/d'/f/b/d/ f/e/c/A/ B/ D/F/B,/D/F,/B,/D,/F,/E,/C,/A,,/ | 
[V:2] !accent!D/ b/d/f/B/d/F/B/ A!accent![EF] [D/F/][K:clef=bass] B,/D,/F,/B,,/D,/F,,/B,,/ A,,[F,,,F,,] | 
[V:1] B,,/ B,,/D,/F,/ !accent!B,/ B,/D/F/ !accent!B/ B/d/f/ !accent!b/ F,/B,/D/ !accent!F/ F/B/d/ !accent!f/ f/b/d'/ | 
[V:2] B,,,/ B,,/F,,/D,,/ B,,,/ B,/F,/D,/ B,,/ B/F/D/ B,/ F,/D,/B,,/ F,,/ F/D/B,/ F,/ F,/D,/B,,/ | 
[V:1] !accent!f'2e'//c'//a//f//e//c//A//F// E[EAcf]!fermata![D6F6B6d6] |]  
[V:2] F,,2(7:4:7A,,/C,/E,/F,/A,/B,/E/ F[F,,F,]!fermata![B,,6F,6B,6] |]  


